X:178
T: HAENSCHEN KRIECHE DURCH DAS LOCH
N: K2364A
O: Europa, Mitteleuropa, Deutschland, Oberdiebach am Rhein
R: Kinder - Lied, Tanz -, Lauf - Spiel
M: 2/4
L: 1/16
K: G
 | d2d2B2e2 | d2d2B2
GG | d2d2e2e2 | d4B2z2 |
d2d2B2e2 | d2d2B2
G2 | d2d2e2e2 | d4B2z2

@@@ Tune index: 7515
